dist/img/sprites/icon-wa.svg

<svg width="24" height="24" viewBox="0 0 24 24" xmlns="http://www.w3.org/2000/svg">
<path d="M5.25099 11.2659C8.67299 9.77391 10.956 8.79091 12.098 8.31591C15.359 6.96091 16.036 6.72491 16.477 6.71691C16.574 6.71491 16.791 6.73891 16.932 6.85291C17.05 6.94991 17.083 7.07991 17.099 7.17191C17.115 7.26191 17.133 7.47091 17.119 7.63291C16.943 9.48891 16.179 13.9949 15.789 16.0729C15.625 16.9529 15.302 17.2479 14.986 17.2769C14.305 17.3389 13.787 16.8259 13.127 16.3939C12.094 15.7159 11.51 15.2939 10.507 14.6329C9.34799 13.8699 10.099 13.4499 10.759 12.7629C10.932 12.5849 13.936 9.85291 13.995 9.60391C14.002 9.57291 14.009 9.45691 13.939 9.39591C13.871 9.33491 13.769 9.35591 13.697 9.37291C13.593 9.39591 11.942 10.4879 8.74399 12.6459C8.27499 12.9669 7.85099 13.1249 7.47099 13.1169C7.05299 13.1079 6.24599 12.8799 5.64799 12.6849C4.91199 12.4449 4.32799 12.3199 4.37799 11.9139C4.40399 11.7009 4.69499 11.4849 5.25099 11.2659Z"/>
<path d="M12 0C5.372 0 0 5.373 0 12C0 18.627 5.372 24 12 24C18.627 24 24 18.627 24 12C24 5.373 18.627 0 12 0ZM12 22C6.477 22 2 17.523 2 12C2 6.477 6.477 2 12 2C17.522 2 22 6.477 22 12C22 17.523 17.522 22 12 22Z" />
</svg>

<svg width="24" height="24" viewBox="0 0 24 24" xmlns="http://www.w3.org/2000/svg"><path d="M5.251 11.266a545.262 545.262 0 016.847-2.95c3.261-1.355 3.938-1.591 4.379-1.6.097-.001.314.023.455.137a.502.502 0 01.167.319c.016.09.034.299.02.46-.176 1.857-.94 6.363-1.33 8.44-.164.88-.487 1.176-.803 1.205-.681.062-1.199-.451-1.859-.883-1.033-.678-1.617-1.1-2.62-1.761-1.159-.763-.408-1.183.252-1.87.173-.178 3.177-2.91 3.236-3.16.007-.03.014-.146-.056-.207-.068-.061-.17-.04-.242-.023-.104.023-1.755 1.115-4.953 3.273-.469.32-.893.479-1.273.47-.418-.008-1.225-.236-1.823-.431-.736-.24-1.32-.365-1.27-.771.026-.213.317-.43.873-.648z"/><path d="M12 0C5.372 0 0 5.373 0 12s5.372 12 12 12c6.627 0 12-5.373 12-12S18.627 0 12 0zm0 22C6.477 22 2 17.523 2 12S6.477 2 12 2c5.522 0 10 4.477 10 10s-4.478 10-10 10z"/></svg>
